X: 1
T: String Quartet in E\b Major opus 17 no 3 mvt 3
C: Franz Joseph Haydn
%%abc-version 2.0
%%abcx-abcm2ps-target-version 5.9.1 (29 Sep 2008)
%%abc-creator hum2abc beta
%%abcx-conversion-date 2021/02/14 14:38:35
%%abc-copyright Copyright (c) 1994, 2000 Center for Computer Assisted Research in the Humanities
%%abc-edited-by Frances Bennion
%%abcx-initial-encoding-date 1997/04/15
%%gracespace 0 6 6
%%humdrum-veritas 908057605
%%humdrum-veritas-data 2513060384
%%linebreak <none>
%%barnumbers 0
L: 1/8
M: 3/4
N: Derived from op17n3-03.krn
Q: "Adatio"
%%staves [1 2 3 4]
V: 1
V: 2
V: 3 clef=alto
V: 4 clef=bass
K: Ab
[V:1]e2 cA GE [I:setbarnb2] |
[V:2]C4 D2 |
[V:3]E6- |
[V:4]A,,4 B,,2 |
[V:1]A2 A,3 e |
[V:2](3:2:2E4- E/c|
[V:3]E4 A3/G/ |
[V:4]C,4 C,2 |
[V:1]e3/d//e// fd dd |
[V:2]c3/B//c// dB BB |
[V:3]F4 G2 |
[V:4]D,4 E,2 |
[V:1]d>B ce ee |
[V:2]B>G Ac cc |
[V:3]G>B AE EE |
[V:4]F,2 >C,2 C,C, |
[V:1]e3/d//e// fd BG |
[V:2]c3/B//c// dF DB, |
[V:3]F2 F,2 G,D |
[V:4]D,4 E,2 |
[V:1]G2 A2 z2 |
[V:2]B,2 C2 z2 |
[V:3]D2 C2 z2 |
[V:4]A,,2 >A,2 E,C, |
[V:1]e2 cA GE |
[V:2]C4 D2 |
[V:3]E,6- |
[V:4]A,,4 B,,2 |
[V:1]A2 A,3 _G |
[V:2]E2 _G3 E |
[V:3]E,E, E,E, E,A, |
[V:4]C,C, C,C, C,C, |
[V:1]=EF F2 AG/F/ |
[V:2]zA, A,A, A,A, |
[V:3]zF, F,F, F,F, |
[V:4]zD, D,D, D,D, |
[V:1]FE EA ce |
[V:2]zA, A,C Ec |
[V:3]zE, E,E, E,E, |
[V:4]zC, C,C, C,C, |
[V:1]e3/d//e// fe dc |
[V:2]c3/B//c// dc BA |
[V:3]F,6 |
[V:4]D,D, D,D, D,=D, |
[V:1]c2 B2 z2 |
[V:2]A2 G2 z2 |
[V:3]E,4 z2 |
[V:4]E,2 >E,2 B,,G,, |
[V:1]b6- |
[V:2]B2 GE =DB, |
[V:3]E4 F2 |
[V:4]E,,2 E,2 F,2 |
[V:1]b2 ge =dB |
[V:2]E4 F2 |
[V:3]G2 B2 B2 |
[V:4]G,4 A,2 |
[V:1]e3 g/e/ fa/f/ |
[V:2]B2 GE =DB, |
[V:3]B6- |
[V:4]G,2 E,2 B,,2 |
[V:1]gb ge =dB |
[V:2]EG BG F=D |
[V:3]B6- |
[V:4]E,,4 A,2 |
[V:1]e4 =e2 |
[V:2]B,B BB BB |
[V:3]BE EE DD |
[V:4]G,G, G,G, G,G, |
[V:1]=e2 fg a=d |
[V:2]B2 A2 zA |
[V:3]D2 C2 z_C |
[V:4]G,2 A,2 zF, |
[V:1]=d2 ef _ge |
[V:2]A2 _G2 z2 |
[V:3]_C2 B,2 z2 |
[V:4]F,2 _G,2 z2 |
[V:1]=A6 |
[V:2]z_G GG GG |
[V:3]zC CC CC |
[V:4]zE, E,E, E,E, |
[V:1]B6 |
[V:2]zF FF FF |
[V:3]zB, B,B, B,B, |
[V:4]z=D, D,D, D,D, |
[V:1]_c4 e2 |
[V:2]z_G GG _cc |
[V:3]z_G, G,G, G,G, |
[V:4]E,E, E,E, E,E, |
[V:1]e2 d2 _c2 |
[V:2]_c2 B2 A2 |
[V:3]A,A, A,A, DD |
[V:4]F,F, F,F, F,F, |
[V:1]B6 |
[V:2]zD DD DD |
[V:3]zD DD DD |
[V:4]z_G, G,G, G,G, |
[V:1]__B6 |
[V:2]zD DD DD |
[V:3]z_G, G,G, G,G, |
[V:4]z_G, G,G, G,G, |
[V:1]__e2 _f2 =d2 |
[V:2]z__B, B,B, B,B, |
[V:3]z_G, G,G, G,G, |
[V:4]z_G, G,G, G,G, |
[V:1]dc2 <c2 e |
[V:2]zA, A,A, A,A, |
[V:3]zE EE EE |
[V:4]z_G, G,G, G,G, |
[V:1]ed2 <d2 c//d//e//d// |
[V:2]zA, A,A, A,A, |
[V:3]zA, A,D DD |
[V:4]zF, F,F, F,F, |
[V:1]a4 f2 |
[V:2]A,4 z2 |
[V:3]D4 z2 |
[V:4]F,4 z2 |
[V:1]c=B2 <B2 =d |
[V:2]zG, G,G, G,G, |
[V:3]z=D DD DD |
[V:4]zF, F,F, F,F, |
[V:1]=dc2 <e2 G |
[V:2]zG GG GE |
[V:3]zG, CC CC |
[V:4]zE, E,E, C,C, |
[V:1]A3/G//A// a3 A |
[V:2]E2 F2 z2 |
[V:3]C2 B,2 z2 |
[V:4]C,2 =D,2 z2 |
[V:1]Gb bb bb |
[V:2]Eg gg gg |
[V:3]B,2 z2 E2 |
[V:4]E,2 z2 G,,2 |
[V:1]b3/a//b// c'a gf |
[V:2]g3/f//g// af e=d |
[V:3]C4 B,2 |
[V:4]A,,4 B,,2 |
[V:1]e6- |
[V:2]e/A/A z/G/G z/F/F |
[V:3]A,2 B,2 C2 |
[V:4]C,2 B,,2 A,,2 |
[V:1]eb bb bb |
[V:2]Eg gg gg |
[V:3]B,2 z2 B,2 |
[V:4]G,,2 z2 G,2 |
[V:1]b3/a//b// c'a gf |
[V:2]g3/f//g// af e=d |
[V:3]C4 B,2 |
[V:4]A,4 B,2 |
[V:1]e/a/a z/g/g z/c'/c' |
[V:2]e6- |
[V:3]A2 B2 c2 |
[V:4]C2 B,2 A,2 |
[V:1]z/b/c'/=d'/ e'/f'/g'/a'/ b'/g'/f'/e'/ |
[V:2]e2 z2 e2- |
[V:3]B2 z2 B,2 |
[V:4]G,2 z2 G,2 |
[V:1]=d'/c'/a'/f'/ f'4 |
[V:2]ec/f/ ee =dd |
[V:3]CA, B,B, A,A, |
[V:4]A,A, B,B, B,,B,, |
[V:1]e'G, B,E GB |
[V:2]e2 z3 G |
[V:3]G,2 z4 |
[V:4]E,2 z4 |
[V:1]B3/c//A// GA F=D |
[V:2]G3/A//F// EC A,A, |
[V:3]E,2 z2 =D,F, |
[V:4]E,,2 z2 B,,2 |
[V:1]EG, B,E GB |
[V:2]G,2 z3 G |
[V:3]E,2 z4 |
[V:4]E,2 z4 |
[V:1]B3/(3e//=d//c// BA F=D |
[V:2]G3/(3c//B//A// GC A,A, |
[V:3]E,2 z2 =D,F, |
[V:4]E,,2 z2 B,,2 |
[V:1]=D2 E2 z2 |
[V:2]A,2 G,2 z2 |
[V:3]F,2 E,2 z2 |
[V:4]E,,4 z2 |
[V:1]b2 ge =dB |
[V:2]G4 A2 |
[V:3]B,6- |
[V:4]E,4 F,2 |
[V:1]e2 E3 e |
[V:2]BB BB BB |
[V:3]B,B, EE EE |
[V:4]G,G, G,G, G,G, |
[V:1]ed2 <d2 d |
[V:2]AA AA AA |
[V:3]FF FF FF |
[V:4]F,F, F,F, F,F, |
[V:1]dc2 <g2 B |
[V:2]GG CC CC |
[V:3]=EE EE EE |
[V:4]=E,E, E,E, E,E, |
[V:1]AG/F/ f3 =B, |
[V:2]CC =B,B, B,F |
[V:3]FF, A,A, A,F, |
[V:4]F,F, D,D, D,D, |
[V:1]=B,2 C2 z2 |
[V:2]F2 =E2 z2 |
[V:3]C,4 z2 |
[V:4]C,2 C,2 z2 |
[V:1]e2 c=A _GE |
[V:2]CC CC CC |
[V:3]_G,G, G,G, G,G, |
[V:4]=A,,A,, A,,A,, A,,A,, |
[V:1]DC/B,/ B,4 |
[V:2]B,D DD DD |
[V:3]F,F, F,F, F,F, |
[V:4]B,,B,, B,,B,, B,,B,, |
[V:1]d2 BG _FD |
[V:2]B,B, B,B, B,B, |
[V:3]_F,F, F,F, F,F, |
[V:4]G,,G,, G,,G,, G,,G,, |
[V:1]Ce cA GE |
[V:2]C4 D2 |
[V:3]E,6- |
[V:4]A,,4 B,,2 |
[V:1]A2 A,3 e |
[V:2](3:2:2E4- E/c|
[V:3]E,2 E2 A3/G/ |
[V:4]C,4 C,2 |
[V:1]e3/d//e// fd dd |
[V:2]c3/B//c// dB BB |
[V:3]F4 G2 |
[V:4]D,4 E,2 |
[V:1]d>B ce ee |
[V:2]B>G AE AG |
[V:3]G>B AA, A,A, |
[V:4]F,2 >C,2 C,C, |
[V:1]e3/d//e// fd BA |
[V:2]F6 |
[V:3]A,4 B,2- |
[V:4]D,4 =D,2 |
[V:1]e6 |
[V:2]EG GG GG |
[V:3]B,E EE EE |
[V:4]E,E, E,E, E,E, |
[V:1]_f6 |
[V:2]AB BB BB |
[V:3]=DD _DD DD |
[V:4]E,E, E,E, E,E, |
[V:1]e6 |
[V:2]GG AA AA |
[V:3]DD CC _CC |
[V:4]E,E, E,E, E,E, |
[V:1]d6 |
[V:2]FF GG GG |
[V:3]_CC B,B, B,B, |
[V:4]E,E, E,E, E,E, |
[V:1]_ce cA Ee |
[V:2]EE EE EE |
[V:3]A,_C CC CC |
[V:4]A,A, A,A, A,A, |
[V:1]ed BG Ed |
[V:2]EE EE EE |
[V:3]B,B, DD DB, |
[V:4]G,G, G,G, G,G, |
[V:1]_ce cA E/A/c/e/ |
[V:2]EE EE EE |
[V:3]A,_C CC CC |
[V:4]A,A, A,A, A,A, |
[V:1]ed BG E/G/B/d/ |
[V:2]EE EE EE |
[V:3]B,B, DD DB, |
[V:4]G,G, G,G, G,G, |
[V:1]_c_f ff f_g |
[V:2]E_c cc c__B |
[V:3]A,_C CC CE |
[V:4]A,A, A,A, A,_G, |
[V:1]a>_g _ff fg |
[V:2]A>__B _cc cc |
[V:3]_F_C CC CE |
[V:4]_F,>_G, A,A, A,G, |
[V:1]a>_g _ff fe |
[V:2]A>=A =BB BB |
[V:3]_F_C CF FF |
[V:4]_F,>_G, A,A, A,A, |
[V:1]e=d2 <d2 f |
[V:2]BB BB BB |
[V:3]FF FF FF |
[V:4]A,A, A,A, A,A, |
[V:1]fe2 <d'2 d |
[V:2]B2 e2 z2 |
[V:3]B,2 B,2 z2 |
[V:4]G,2 G,2 z2 |
[V:1]ce ee ee |
[V:2]A,c cc cc |
[V:3]A,2 z2 A2 |
[V:4]A,,2 z2 C,2 |
[V:1]e3/d//e// fd cB |
[V:2]c3/B//c// dB AG |
[V:3]F4 E2 |
[V:4]D,4 E,2 |
[V:1]A6- |
[V:2]A/d/d z/c/c z/B/B |
[V:3]D2 E2 F2 |
[V:4]F,2 E,2 D,2 |
[V:1]Ae ee ee |
[V:2]Ac cc cc |
[V:3]E2 z2 A2 |
[V:4]C,2 z2 C,2 |
[V:1]e3/d//e// fd cB |
[V:2]c3/B//c// dB AG |
[V:3]F4 E2 |
[V:4]D,4 E,2 |
[V:1]A/d/d z/c/c z/f/f |
[V:2]A6- |
[V:3]D2 E2 F2 |
[V:4]F,2 E,2 D,2 |
[V:1]z/e/f/g/ a/b/c'/d'/ e'/c'/b/a/ |
[V:2]A2 z2 A2- |
[V:3]E2 z2 E2 |
[V:4]C,2 z2 C,2 |
[V:1]g/f/d'/b/ b4 |
[V:2]AF/B/ AA GG |
[V:3]FD EE DD |
[V:4]D,D, E,E, E,E, |
[V:1]aC EA ce |
[V:2]A2 z3 c |
[V:3]C2 z4 |
[V:4]A,,2 z4 |
[V:1]e3/f//d// cd BG |
[V:2]c3/d//B// AF DB, |
[V:3]A,2 z2 G,D |
[V:4]A,,2 z2 E,2 |
[V:1]AC EA ce |
[V:2]C2 z3 c |
[V:3]C2 z4 |
[V:4]A,,2 z4 |
[V:1]e3/a//f// ed BG |
[V:2]c3/f//d// cF DB, |
[V:3]A,2 z2 G,D |
[V:4]A,,2 z2 E,,2 |
[V:1]G2 A2 z2 |]
[V:2]B,2 C2 z2 |]
[V:3]D2 C2 z2 |]
[V:4]A,,4 z2 |]

